www/assets/icons/browse_gallery.svg

<svg xmlns="http://www.w3.org/2000/svg" width="24" height="24" viewBox="0 0 24 24" fill='currentColor'><path d="M9 3a9 9 0 1 0 .001 18.001A9 9 0 0 0 9 3m2.79 13.21L8 12.41V7h2v4.59l3.21 3.21z"/><path d="M17.99 3.52v2.16A6.99 6.99 0 0 1 22 12c0 2.79-1.64 5.2-4.01 6.32v2.16C21.48 19.24 24 15.91 24 12s-2.52-7.24-6.01-8.48"/></svg>

<svg width="24" height="24" viewBox="0 0 24 24" xmlns="http://www.w3.org/2000/svg" fill='currentColor'><path d="M9 3C4.03 3 0 7.03 0 12C0 16.97 4.03 21 9 21C13.97 21 18 16.97 18 12C18 7.03 13.97 3 9 3ZM11.79 16.21L8 12.41V7H10V11.59L13.21 14.8L11.79 16.21Z"/><path d="M17.99 3.52V5.68C20.36 6.8 22 9.21 22 12C22 14.79 20.36 17.2 17.99 18.32V20.48C21.48 19.24 24 15.91 24 12C24 8.09 21.48 4.76 17.99 3.52Z"/></svg>
